src/assets/outline/Maximize.svg

<svg width="24" height="24" viewBox="0 0 24 24"  xmlns="http://www.w3.org/2000/svg">
<path d="M15 22.75H9C3.57 22.75 1.25 20.43 1.25 15V9C1.25 3.57 3.57 1.25 9 1.25H15C20.43 1.25 22.75 3.57 22.75 9V15C22.75 20.43 20.43 22.75 15 22.75ZM9 2.75C4.39 2.75 2.75 4.39 2.75 9V15C2.75 19.61 4.39 21.25 9 21.25H15C19.61 21.25 21.25 19.61 21.25 15V9C21.25 4.39 19.61 2.75 15 2.75H9Z" />
<path d="M5.99994 18.7499C5.80994 18.7499 5.61994 18.6799 5.46994 18.5299C5.17994 18.2399 5.17994 17.7599 5.46994 17.4699L17.4699 5.46994C17.7599 5.17994 18.2399 5.17994 18.5299 5.46994C18.8199 5.75994 18.8199 6.23994 18.5299 6.52994L6.52994 18.5299C6.37994 18.6799 6.18994 18.7499 5.99994 18.7499Z" />
<path d="M18 10.75C17.59 10.75 17.25 10.41 17.25 10V6.75H14C13.59 6.75 13.25 6.41 13.25 6C13.25 5.59 13.59 5.25 14 5.25H18C18.41 5.25 18.75 5.59 18.75 6V10C18.75 10.41 18.41 10.75 18 10.75Z" />
<path d="M10 18.75H6C5.59 18.75 5.25 18.41 5.25 18V14C5.25 13.59 5.59 13.25 6 13.25C6.41 13.25 6.75 13.59 6.75 14V17.25H10C10.41 17.25 10.75 17.59 10.75 18C10.75 18.41 10.41 18.75 10 18.75Z" />
<path d="M17.9999 18.7499C17.8099 18.7499 17.6199 18.6799 17.4699 18.5299L5.46994 6.52994C5.17994 6.23994 5.17994 5.75994 5.46994 5.46994C5.75994 5.17994 6.23994 5.17994 6.52994 5.46994L18.5299 17.4699C18.8199 17.7599 18.8199 18.2399 18.5299 18.5299C18.3799 18.6799 18.1899 18.7499 17.9999 18.7499Z" />
<path d="M6 10.75C5.59 10.75 5.25 10.41 5.25 10V6C5.25 5.59 5.59 5.25 6 5.25H10C10.41 5.25 10.75 5.59 10.75 6C10.75 6.41 10.41 6.75 10 6.75H6.75V10C6.75 10.41 6.41 10.75 6 10.75Z" />
<path d="M18 18.75H14C13.59 18.75 13.25 18.41 13.25 18C13.25 17.59 13.59 17.25 14 17.25H17.25V14C17.25 13.59 17.59 13.25 18 13.25C18.41 13.25 18.75 13.59 18.75 14V18C18.75 18.41 18.41 18.75 18 18.75Z" />
</svg>

<?xml version="1.0" encoding="UTF-8"?>
<svg width="24" height="24" viewBox="0 0 24 24" xmlns="http://www.w3.org/2000/svg">
 <path d="m15 22.75h-6c-5.43 0-7.75-2.32-7.75-7.75v-6c0-5.43 2.32-7.75 7.75-7.75h6c5.43 0 7.75 2.32 7.75 7.75v6c0 5.43-2.32 7.75-7.75 7.75zm-6-20c-4.61 0-6.25 1.64-6.25 6.25v6c0 4.61 1.64 6.25 6.25 6.25h6c4.61 0 6.25-1.64 6.25-6.25v-6c0-4.61-1.64-6.25-6.25-6.25h-6z"/>
 <path d="m5.9999 18.75c-0.19 0-0.38-0.07-0.53-0.22-0.29-0.29-0.29-0.77 0-1.06l12-12c0.29-0.29 0.77-0.29 1.06 0s0.29 0.77 0 1.06l-12 12c-0.15 0.15-0.34 0.22-0.53 0.22z"/>
 <path d="m18 10.75c-0.41 0-0.75-0.34-0.75-0.75v-3.25h-3.25c-0.41 0-0.75-0.34-0.75-0.75s0.34-0.75 0.75-0.75h4c0.41 0 0.75 0.34 0.75 0.75v4c0 0.41-0.34 0.75-0.75 0.75z"/>
 <path d="m10 18.75h-4c-0.41 0-0.75-0.34-0.75-0.75v-4c0-0.41 0.34-0.75 0.75-0.75s0.75 0.34 0.75 0.75v3.25h3.25c0.41 0 0.75 0.34 0.75 0.75s-0.34 0.75-0.75 0.75z"/>
 <path d="m18 18.75c-0.19 0-0.38-0.07-0.53-0.22l-12-12c-0.29-0.29-0.29-0.77 0-1.06s0.77-0.29 1.06 0l12 12c0.29 0.29 0.29 0.77 0 1.06-0.15 0.15-0.34 0.22-0.53 0.22z"/>
 <path d="m6 10.75c-0.41 0-0.75-0.34-0.75-0.75v-4c0-0.41 0.34-0.75 0.75-0.75h4c0.41 0 0.75 0.34 0.75 0.75s-0.34 0.75-0.75 0.75h-3.25v3.25c0 0.41-0.34 0.75-0.75 0.75z"/>
 <path d="m18 18.75h-4c-0.41 0-0.75-0.34-0.75-0.75s0.34-0.75 0.75-0.75h3.25v-3.25c0-0.41 0.34-0.75 0.75-0.75s0.75 0.34 0.75 0.75v4c0 0.41-0.34 0.75-0.75 0.75z"/>
</svg>
